X:2126
T:Galop. GHW.033
O:england
M:2/4
L:1/8
Q:250
S:George H.Watson,MS,Swanton Abbott,Norfolk,1850-1880
R:Galop
A:Norfolk
N:'Signo' at start and end, DC at end. Ccnfused notes in second beat of
N:23. Could be either cg or gc. I've gone for  cg, but it could be
N:either.
K:F
cc/c/ cd|c3 d|cAcf|e2 z2|cc/c/ cd|c3 a|gfdg|c.c.d.e||
f3e|d2 zc|dc cd|d2 B2|f3e|d2 z d|dd cB|(d2c) z|
f3e|d2 zc|dc cf|g2 d2|f2ed|c2 zd|ca cg|(f2f2):|
K:Bb
d2c>B|d3 d|ff e>d|f2 zb|a3 g|d3 e|dd c>B|c3 ^c|
d3 c>B|d3 f| ff e>d|(g2g2)|=e3 e|f3 g|fe d>c|(B2B2):|


